!!!!SEGMENT: pl-wtm--r-730-41-m_moniuszko-stanislaw--komu-slubny-splatasz-wieniec.krn
!!!id: 18xx:1721
!!!COM: Moniuszko, Stanisław
!!!COM-rism: pe30008351
!!!CDT: 1819/05/05-1872/06/04
!!!CNT: Polish
!!!OTL: Komu ślubny splatasz wieniec
!!!PDT:
!!!SMS-siglum: PL-Wtm
!!!SMS-shelfmark: R 730/41/M
!!!NIFC-rismID: 1001099887
!!!URL-scan: http://repozytorium.nifc.pl/skany/pl-wtm-nut--r730m-1-43
!!!ONB-nifc: Skan 0044, No. 787
!!!SMS-variant:
!!!SMS-altvar:
**kern	**kern	**dynam	**kern	**text	**text
*part2	*part2	*part2	*part1	*part1	*part1
*staff3	*staff2	*	*staff1	*staff1	*staff1
*I"[Fortepian]	*	*	*I"[Głos]	*	*
*I'pf	*	*	*I'V	*	*
*clefF4	*clefG2	*	*clefG2	*	*
*	*ok[f#]	*	*ok[f#]	*	*
*k[f#]	*k[f#]	*	*k[f#]	*	*
*M6/8	*M6/8	*	*M6/8	*	*
*>[A,A,B]	*>[A,A,B]	*	*>[A,A,B]	*	*
=1!|:	=1!|:	=1!|:	=1!|:	=1!|:	=1!|:
*^	*^	*	*	*	*
*>A	*>A	*>A	*>A	*	*>A	*	*
*	*2\right	*	*	*	*	*	*
!!LO:TX:t=P:problem:2\right:global
4.G/	2.C\	8ee/L	4.e\	.	2.r	.	.
.	.	8dd/	.	.	.	.	.
.	.	8cc/J	.	.	.	.	.
4.F#/	.	8ccT/L	4.d\	.	.	.	.
.	.	8b/	.	.	.	.	.
.	.	8a/J	.	.	.	.	.
=2	=2	=2	=2	=2	=2	=2	=2
[4.G/	[4.BB\	(<4dd/	[4.d\	.	2.r	.	.
.	.	8b/	.	.	.	.	.
8G/]	8BB\]	4g/)	8d\]	.	.	.	.
8r	4ryy	.	8r	.	.	.	.
8C/	.	8a/	8e\	.	.	.	.
*v	*v	*	*	*	*	*	*
=3	=3	=3	=3	=3	=3	=3
2.DD/ 2.D	8b/L	4d\	.	2.r	.	.
.	8g/	.	.	.	.	.
.	8cc/J	8e\	.	.	.	.
.	8a/L	4c\	.	.	.	.
.	8e/	.	.	.	.	.
.	8f#/J	8A\	.	.	.	.
=4	=4	=4	=4	=4	=4	=4
4GG/	8g/	8B\	.	2.r	.	.
.	8B/L	2ryy	.	.	.	.
8r	8d/J	.	.	.	.	.
4G\	8g/L	.	.	.	.	.
.	8B/	.	.	.	.	.
8r	8d/J	8ryy	.	.	.	.
*	*v	*v	*	*	*	*
=5	=5	=5	=5	=5	=5
4GG/	8g/	.	8d/L	„Ko-	Jed-
.	(8B/L	.	8g/J	.	-ne-
8r	8d/J	.	8a/	-mu	-mu
4G\ 4B	8g/L	.	8b\L	ślub-	od-
.	8cc/	.	8ee\J	.	-da-
8r	8b/J)	.	8dd\	-ny	-jesz
=6	=6	=6	=6	=6	=6
4GG/	(8g/L	.	4b/	spla-	wie-
.	8d/	.	.	.	.
8r	8B/J)	.	8g/	-tasz	-niec
.	.	.	8qa/	.	.
4D\ 4B	(8G/L	.	8g/L	wie-	z_róż
.	8A/	.	8f#/J	.	.
8r	8B/J)	.	8g/	-niec	li-
=7	=7	=7	=7	=7	=7
[<2.D\	(8c/L	.	4a/	z_róż,	-li-
.	8A/	.	.	.	.
.	8d/J)	.	8f#/	li-	-i
.	(8c/L	.	4e/	-li-	i
.	8G/	.	.	.	.
.	8F#/J)	.	8d/	-i	ty-
=8	=8	=8	=8	=8	=8
2.DD\ 2.D]	(8c/L	.	4a/	i	-mian-
.	8A/	.	.	.	.
.	8F#/J)	.	8d/	ty-	-ka
.	(8G/L	.	4e/	-mian-	Ko-
.	8c/	.	.	.	.
.	8F#/J)	.	8d/	-ka?	-cha
!!LO:LB:g=original
=9	=9	=9	=9	=9	=9
2.DD\ 2.D	(8G/L	.	8d/	ach!	cię
.	8B/	.	8g/	jak	.
.	8d/J	.	8a/	szczę-	dru-
.	8g/L)	.	8b\	-śli-	-gi
!	!LO:TX:t=P:problem:korekta	!	!	!	!
.	8d/	.	8ee\	-wy	.
!	!LO:TX:t=P:problem:korekta	!	!	!	!
.	8B/J	.	8dd\	mło-	mło-
=10	=10	=10	=10	=10	=10
[2.AA/	8r	.	4cc#X\	-dzie-	-dzie-
.	(8A/L	.	.	.	.
.	8e/J	.	8cc#\	-niec,	-niec
.	8g/L	.	8cc#\L	ko-	ty
.	8e/	.	8b\J	.	.
.	8A/J)	.	8cc#\	-mu	jed-
=11	=11	=11	=11	=11	=11
.	8qe/	.	.	.	.
2.AA/]	(8f#/L	.	4dd\	ślub-	-ne-
.	8d/	.	.	.	.
.	8A/J)	.	8f#X/	-ny	-mu
.	(8B/L	.	8g/L	spla-	od-
.	8A/	.	8f#/J	.	.
.	8G/J) 8c#X	.	8e/	-tasz	-dasz
=12	=12	=12	=12	=12	=12
8DD/	8F#/ 8d	.	4e/	wie-	wie-
8D\L 8F#	8A/L 8d	.	.	.	.
8D\J 8F#	8A/J 8d	.	8d/	-niec,	-niec.
*tremolo	*tremolo	*	*	*	*
8D\L 8F#	8A/L 8d	.	4r	.	.
8D\ 8F#	8A/ 8d	.	.	.	.
8D\J 8F#	8A/J 8d	.	8r	.	.
*Xtremolo	*Xtremolo	*	*	*	*
=13	=13	=13	=13	=13	=13
*tremolo	*tremolo	*	*	*	*
8C\L 8G	8c/L 8e-X	.	8ee-X\	Pew-	Zos-
8C\ 8G	8c/ 8e-	.	8dd\	-nie	-taw-
8C\ 8G	8c/ 8e-	.	8cc\	dla	-że
8C\ 8G	8c/ 8e-	.	8b-X\	twe-	łzy
8C\ 8G	8c/ 8e-	.	8a\	-go	i
8C\J 8G	8c/J 8e-	.	8g\	ko-	ru-
*Xtremolo	*Xtremolo	*	*	*	*
=14	=14	=14	=14	=14	=14
[4.D\	8r	.	4.g/	-chan-	-mie-
.	8c/L 8e-X 8g	.	.	.	.
.	8c/J 8e- 8g	.	.	.	.
4D\]	(8c/L 8e- 8g	.	8f#/	-ka?	-niec
.	8B-X/ 8d 8f#	.	8r	.	.
8r	8A/J) 8c 8f#	.	8f#/	wy-	dla
=15	=15	=15	=15	=15	=15
2.D\	8r	.	4g/	-da-	niesz-
.	8B-X/L 8g	.	.	.	.
.	8B-/J 8d	.	8g/	-ją	-częs-
.	(8d/L 8b-X	.	8b-X/	łzy	-ne-
.	8c/ 8a	.	8a/	i	-go
.	8B-/J) 8d 8g	.	8g/	ru-	ko-
=16	=16	=16	=16	=16	=16
*	*	*	*2\right	*	*
8D\	8A/L 8d 8f#	.	[2.dd\	-mie-	-chan-
(8F#\L	(8a/	.	.	.	.
8G\J	8b/J	.	.	.	.
8A\L	8cc/L	.	.	.	.
8F#\	8a/	.	.	.	.
8D\J)	8f#/J)	.	.	.	.
!!LO:LB:g=original
=17	=17	=17	=17	=17	=17
*^	*	*	*	*	*
!LO:TX:t=P:problem:korekta takt zapisany poniżej	!	!	!	!	!	!
8r	2.GG\	(8d/L	.	2.dd\_	.	.
8D/L	.	8g/	.	.	.	.
8F#/J	.	8a/J	.	.	.	.
8G/L	.	8b\L	.	.	.	.
8D/	.	8ee\	.	.	.	.
8B/J	.	8dd\J)	.	.	.	.
=18	=18	=18	=18	=18	=18	=18
8r	2.GG\	(4b/	.	(4dd\]	.	.
8D/L	.	.	.	.	.	.
8F#/J	.	8g/)	.	8b\)	-niec,	-ka
.	.	8qa/	.	8qcc/	.	.
8B/L	.	(8g/L	.	8b\L	ko-	gdy
8G/	.	8f#/	.	8a\J	.	.
8D/J	.	8g/J)	.	8b\	-mu	szczę-
=19	=19	=19	=19	=19	=19	=19
8r	2.GG\	(4a/	.	[4.cc\	ślub-	- śli-
(<8F#/L	.	.	.	.	.	.
8c/J)	.	8f#/)	.	.	.	.
(<8G/L	.	(4e/	.	4cc\]	.	.
8c/)	.	.	.	.	.	.
8F#'</J	.	8d/)	.	8a\	-ny	-wy
=20	=20	=20	=20	=20	=20	=20
8r	2.GG\	(4a/	.	4f#/	spla-	bie-
(<8D/L	.	.	.	.	.	.
8c/J)	.	8d/)	.	8a/	-tasz	-rze
(<8G/L	.	(4e/	.	4e/	wie-	wie-
8c/)	.	.	.	.	.	.
8F#/J	.	8d/)	.	8d/	-niec	-niec
*v	*v	*	*	*	*	*
=21	=21	=21	=21	=21	=21
*	*	*	*^	*	*
2.GG\ 2.G	(8B/L	.	8d/L	4ryy	z_róż	z_róż
.	8d/	.	8g/	.	.	.
.	8f#/J)	.	8a/J	8a\	li-	li-
.	(8g/L	.	8b\L	4.ryy	-li-	-li-
.	8d/	.	8ee\J	.	.	.
.	8B/J)	.	8dd\	.	-i	-i
=22	=22	=22	=22	=22	=22	=22
(8E\L	4.c#X/ 4.g 4.a#X	.	(>8cc#X/	8cc#\L	i	i
8G\	.	.	8b#X/)	8b#J	.	.
8A#X\J)	.	.	8cc#/	8cc#	ty-	ty-
4CC#X;/ 4C#X	4a#;\ 4ee 4gg	sf	4gg;\	4.ryy	-mian-	-mian-
8r	8r	.	8cc#\	.	-ka	-ka
*	*	*	*v	*v	*	*
=23	=23	=23	=23	=23	=23
*tremolo	*tremolo	*	*	*	*
8D\L 8B	8d/L 8g	p	4dd\	z_róż	z_róż
8D\ 8B	8d/ 8g	.	.	.	.
8D\J 8B	8d/J 8g	.	8g/	li-	li-
*Xtremolo	*Xtremolo	*	*	*	*
8D\L 8e	8c/L 8g 8cc	.	4cc\	-li-	-li-
8D\ 8e	8c/ 8g 8cc	.	.	.	.
8D\J 8d	8d/J 8g 8b	.	8b\	-i	-i
=24	=24	=24	=24	=24	=24
*tremolo	*	*	*	*	*
8D\L 8c#X	8e/L 8a	.	8a/L	i	i
8D\ 8c#	8e/ 8g#X	.	8g#X/J	.	.
8D\J 8c#	8e/J 8a	.	8a/	ty-	ty-
*	*tremolo	*	*	*	*
8D\L 8cn	8f#/L 8a 8dd	.	4.dd\	-mian-	-mian-
8D\ 8c	8f#/ 8a 8dd	.	.	.	.
8D\J 8c	8f#/J 8a 8dd	.	.	.	.
*Xtremolo	*Xtremolo	*	*	*	*
!!LO:PB:g=original
=25	=25	=25	=25	=25	=25
4G\ 4B	8g/	.	4g/	-ka,	-ka.
.	(8g/L	.	.	.	.
8r	8a/J	.	8r	.	.
4r	8b/L	.	4r	.	.
.	8cc/	.	.	.	.
8r	8dd/J)	.	8r	.	.
=26:|!	=26:|!	=26:|!	=26:|!	=26:|!	=26:|!
*>B	*>B	*	*>B	*	*
2.r	(8ee-X/L	.	2.r	.	.
.	8dd/)	.	.	.	.
.	8cc#X/J	.	.	.	.
.	(8dd\L	.	.	.	.
.	8bb\	.	.	.	.
.	8gg\J)	.	.	.	.
=27	=27	=27	=27	=27	=27
*^	*	*	*	*	*
*	*	*2\right	*	*	*	*
8r	[2.GG\	(2.b\ 2.dd	.	2.r	.	.
(8D/L	.	.	.	.	.	.
8D#X/J	.	.	>	.	.	.
8E/L	.	.	.	.	.	.
8E#X/	.	.	.	.	.	.
8F#/J)	.	.	.	.	.	.
=28	=28	=28	=28	=28	=28	=28
4G/	4GG\]	4g\) 4b	]	2.r	.	.
8ryy	8ryy	8r	.	.	.	.
4D/	4GG\	4g\ 4b	.	.	.	.
8r	8ryy	8r	.	.	.	.
=29	=29	=29	=29	=29	=29	=29
2.G;\	2.GG\	2.B;/ 2.d 2.g	.	2.r	.	.
*v	*v	*	*	*	*	*
!LO:PB:g=original	!	!	!	!	!
==	==	==	==	==	==
*-	*-	*-	*-	*-	*-
!!!system-decoration: s1{(s2,s3)}
!!!RDF**kern: < = below
!!!RDF**kern: > = above
!!!ENC: Marta Chmielewska
!!!END: 2021-04-21
!!!ENC: Tomasz Grochalski
!!!END: 2021-04-02
